teeny/solid/hdmi-cable.svg

<svg viewBox="0 0 15 15" xmlns="http://www.w3.org/2000/svg"><path fill-rule="evenodd" d="M3 0h9v5H3V0Zm3 3H5V2h1v1Zm4 0H9V2h1v1Z"/><path d="M2 6h11v3.8l-2 .99v2.19h-1v2H9v-2H6v2H5v-2H4v-2.2l-2-1V5.97Z"/></svg>

<svg width="15" height="15" viewBox="0 0 15 15" fill="none" xmlns="http://www.w3.org/2000/svg">
<path fill-rule="evenodd" clip-rule="evenodd" d="M3 0H12V5H3V0ZM6 3H5V2H6V3ZM10 3H9V2H10V3Z" fill="black"/>
<path d="M2 6H13V9.80902L11 10.809V13L10 13V15H9V13H6V15H5V13L4 13V10.809L2 9.80902V6Z" fill="black"/>
</svg>
